src/images/icons/bed.svg

<svg  viewBox="0 0 640 512">
  <path fill="currentColor" d="M176 288c44.1 0 80-35.9 80-80s-35.9-80-80-80-80 35.9-80 80 35.9 80 80 80zm368-160H304c-8.8 0-16 7.2-16 16v176H64V48c0-8.84-7.16-16-16-16H16C7.163 32 0 39.16 0 48v416c0 8.8 7.163 16 16 16h32c8.84 0 16-7.2 16-16v-48h512v48c0 8.837 7.163 16 16 16h32c8.837 0 16-7.163 16-16V224c0-53.9-43-96-96-96z"/>
</svg>

<svg aria-hidden="true" focusable="false" data-prefix="fas" data-icon="bed" class="svg-inline--fa fa-bed icons-section-icon" role="img" xmlns="http://www.w3.org/2000/svg" viewBox="0 0 640 512"><path fill="currentColor" d="M176 288C220.1 288 256 252.1 256 208S220.1 128 176 128S96 163.9 96 208S131.9 288 176 288zM544 128H304C295.2 128 288 135.2 288 144V320H64V48C64 39.16 56.84 32 48 32h-32C7.163 32 0 39.16 0 48v416C0 472.8 7.163 480 16 480h32C56.84 480 64 472.8 64 464V416h512v48c0 8.837 7.163 16 16 16h32c8.837 0 16-7.163 16-16V224C640 170.1 597 128 544 128z"></path></svg>
